build/img/svg/icon-ozon.svg

<svg width="33" height="30" viewBox="0 0 33 30" fill="none" xmlns="http://www.w3.org/2000/svg">
<path d="M4.0644 29.9999L3.27441 11.293L5.42892 4.57764L14.9274 1.29993L19.2889 3.69826L32.9994 17.1913V29.9983L4.0644 29.9999Z" fill="#F81155"/>
<path d="M10.7854 17.7C8.19152 17.6626 5.75571 17.0788 3.6105 15.599C1.32797 14.0236 0.195084 11.3204 0.93916 8.59011C1.57785 6.26285 3.05483 4.54489 4.97091 3.18533C7.50572 1.38772 10.3447 0.447896 13.4631 0.296569C16.1033 0.168339 18.6006 0.596833 20.864 2.00497C22.6403 3.11046 23.8594 4.65002 24.198 6.76064C24.4598 8.29634 24.1388 9.87429 23.2974 11.1866C20.8863 15.0096 17.2538 16.8614 12.8883 17.485C12.1913 17.5837 11.4864 17.6291 10.7854 17.7ZM10.775 13.6476C13.0783 13.6229 15.2044 13.0336 17.1452 11.8261C18.2884 11.1149 19.272 10.2332 19.8748 8.99631C20.4975 7.72197 20.2444 6.58622 19.0932 5.74595C18.6232 5.3902 18.1039 5.10448 17.5516 4.89772C14.6719 3.89179 11.8584 4.23984 9.1256 5.45524C7.50732 6.17604 6.10938 7.18834 5.21361 8.77091C4.45756 10.1106 4.71623 11.365 5.94572 12.2801C7.38597 13.3521 9.05535 13.6102 10.775 13.6476Z" fill="white"/>
</svg>

<svg width="33" height="30" fill="none" xmlns="http://www.w3.org/2000/svg"><path d="M4.064 30l-.79-18.707L5.43 4.578 14.927 1.3l4.362 2.398 13.71 13.493v12.807L4.064 30z" fill="#F81155"/><path d="M10.785 17.7c-2.593-.037-5.03-.621-7.175-2.101C1.329 14.024.196 11.32.94 8.59c.638-2.327 2.115-4.045 4.03-5.405C7.507 1.388 10.346.448 13.464.297c2.64-.129 5.138.3 7.401 1.708 1.776 1.105 2.995 2.645 3.334 4.756a6.252 6.252 0 01-.9 4.426c-2.412 3.823-6.044 5.674-10.41 6.298-.697.099-1.402.144-2.103.215zm-.01-4.052c2.303-.025 4.43-.614 6.37-1.822 1.143-.711 2.127-1.593 2.73-2.83.622-1.274.37-2.41-.782-3.25a6.095 6.095 0 00-1.541-.848c-2.88-1.006-5.694-.658-8.426.557-1.619.721-3.017 1.733-3.912 3.316-.756 1.34-.498 2.594.732 3.51 1.44 1.071 3.11 1.33 4.829 1.367z" fill="#fff"/></svg>
